X:1
T:One Note Samba
C:Antonio Carlos Jobim
L:1/8
M:C
I:linebreak $
K:Bb
"Dm" F2 F F3 F2 |"Db7" F2 F4FF |"Cm" F2 F F3 F2 |"B7" F6FF |$"Dm" F2 F F3 F2 |"Db7" F2 F4FF |
"Cm" F2 F F3 F2 |"B7" F6BBOx///||$"Fm" B2 B B3 B2 |"E7" B2 B4BB |"Eb" B2 B B3 B2 |"Ab7" B6FF |$
"Dm" F2 F F3 F2 |"Db7" F2 F4FF |"Cm" F2 F"B7" F3 F2 |"Bb6" B8 ||[K:Db]"Ebm"Bcde dcBA |$
"Ab7" GFED CDEF |"Db" C3 B, z CDF | C2 B,6 ||[K:B]"C#m" GABc BAGF |$"F#7" EDCB, A,"E7"B,CD |
"B" A,3 G, z A,B,D ||[K:Bb]"Cø" _G3 F3"F7""_D.C. al Coda" FF ||$Ox/"Fm" B2 B B3 B2 | B2 B4BB |
"Eb" B2 B B3 B2 |"Ab7" (3:2:1B6BB |$"Db" B2 B B3 B2 |"C7" B2 B4 BB |"B" B2 B B3 B2 |"Bb6" B8 |]

